icons/solid/presentation-line.svg

<svg width="24" height="24" viewBox="0 0 24 24" fill="none" xmlns="http://www.w3.org/2000/svg">
<path fill-rule="evenodd" clip-rule="evenodd" d="M3 6C3 4.34315 4.34315 3 6 3H18C19.6569 3 21 4.34315 21 6V14C21 15.6569 19.6569 17 18 17H14.4142L16.7071 19.2929C17.0976 19.6834 17.0976 20.3166 16.7071 20.7071C16.3166 21.0976 15.6834 21.0976 15.2929 20.7071L12 17.4142L8.70711 20.7071C8.31658 21.0976 7.68342 21.0976 7.29289 20.7071C6.90237 20.3166 6.90237 19.6834 7.29289 19.2929L9.58579 17H6C4.34315 17 3 15.6569 3 14V6ZM17.7071 7.29289C17.3166 6.90237 16.6834 6.90237 16.2929 7.29289L13 10.5858L10.7071 8.29289C10.3166 7.90237 9.68342 7.90237 9.29289 8.29289L6.29289 11.2929C5.90237 11.6834 5.90237 12.3166 6.29289 12.7071C6.68342 13.0976 7.31658 13.0976 7.70711 12.7071L10 10.4142L12.2929 12.7071C12.6834 13.0976 13.3166 13.0976 13.7071 12.7071L17.7071 8.70711C18.0976 8.31658 18.0976 7.68342 17.7071 7.29289Z" fill="currentColor"/>
</svg>

<svg width="24" height="24" fill="none" xmlns="http://www.w3.org/2000/svg"><path fill-rule="evenodd" clip-rule="evenodd" d="M3 6a3 3 0 013-3h12a3 3 0 013 3v8a3 3 0 01-3 3h-3.586l2.293 2.293a1 1 0 01-1.414 1.414L12 17.414l-3.293 3.293a1 1 0 01-1.414-1.414L9.586 17H6a3 3 0 01-3-3V6zm14.707 1.293a1 1 0 00-1.414 0L13 10.586l-2.293-2.293a1 1 0 00-1.414 0l-3 3a1 1 0 101.414 1.414L10 10.414l2.293 2.293a1 1 0 001.414 0l4-4a1 1 0 000-1.414z" fill="currentColor"/></svg>
